X: 37756
T: Somerset
R: slip jig
M: 9/8
K: Cmajor
|:e2c cBc edc|f2d dec BAG|e2c cBc edc|def G2B c3:|
|:g2G GAF G2c|A2d dec def|g2G GAF Gce|def G2B c3:|

